X:24
T:Blue Bells of Scotland
S:John Moore's Book 2
Z:Transcribed by Taz Tarry 04/2021
%%VWML: Moore1-4494-p23-1
F:http://www.vwml.org/record/Moore2/4494/p23
N:Time signature is 6/8 in the ms although notation is 4/4
M:6/8
L:1/4
K:G
d|g2 f e|d d eg|B (BcA)|G4:|
w:Oh where and oh where is my high-land lad-die_ gone
d|B G B d|g g e g|f d e ^c|d2 dd|
g2 f e|d d e g|B B c A|G3 :|

